icons/desktop/16/private-mode-circle-fill-16.svg

<svg width="16" height="16" viewBox="0 0 16 16" fill="none" xmlns="http://www.w3.org/2000/svg">
<circle cx="8" cy="8" r="8" fill="black"/>
<path d="M14.1119 8.67054C13.5115 8.67054 13.2055 8.23544 13.0909 7.64425C12.925 6.78771 12.6367 5.97799 12.2951 5.17023C12.1194 4.75464 11.7975 3.80054 11.2663 3.69128C10.662 3.56641 10.1288 3.89224 9.43963 5.27364C8.87287 6.41309 8.48978 7.2072 8.48978 7.2072V7.215L8.10075 7.2111C8.10075 7.2111 8.0968 7.2111 8.09088 7.2111C8.09088 7.2111 8.06718 7.2111 8.03756 7.2111C8.02966 7.2111 8.02374 7.2111 8.01584 7.2111C8.00991 7.2111 8.00399 7.2111 7.99806 7.2111C7.99214 7.2111 7.98622 7.2111 7.98029 7.2111C7.97239 7.2111 7.96449 7.2111 7.95857 7.2111C7.92895 7.2111 7.90525 7.2111 7.90525 7.2111C7.90525 7.2111 7.89538 7.2111 7.89538 7.21305L7.50635 7.21696V7.20915C7.50635 7.20915 7.12325 6.41309 6.5565 5.27559C5.86929 3.89224 5.33414 3.56836 4.72987 3.69323C4.19866 3.80249 3.87678 4.75854 3.70103 5.17218C3.3594 5.97994 3.07108 6.78771 2.90521 7.6462C2.79067 8.23739 2.48656 8.67054 1.88426 8.67249C1.73023 8.67249 1.62755 8.83249 1.68087 8.97492C1.80922 9.31831 2.20417 9.53684 2.53395 9.66366C2.38585 9.70269 1.94351 9.61293 1.92376 9.83536C1.90796 10.0168 2.37005 10.2002 2.49446 10.2588C3.65758 10.8187 4.72789 11.8236 6.10429 11.646C6.70263 11.568 7.13905 11.1465 7.62879 10.8851C7.85983 10.7621 8.14025 10.7621 8.37129 10.8851C8.86103 11.1465 9.29744 11.568 9.89579 11.646C11.2722 11.8236 12.3425 10.8187 13.5056 10.2588C13.63 10.1983 14.0901 10.0168 14.0763 9.83536C14.0585 9.61488 13.6162 9.70269 13.4661 9.66366C13.7959 9.53684 14.1909 9.31831 14.3192 8.97492C14.3725 8.83249 14.2679 8.67444 14.1158 8.67249L14.1119 8.67054ZM4.36257 8.96516C4.34479 8.7798 4.74764 8.63737 4.89377 8.61396C5.76266 8.46958 6.91393 8.80907 7.19434 9.70854C6.39655 10.4363 4.75356 9.93487 4.36257 8.96711V8.96516ZM8.79981 9.70854C9.08022 8.80907 10.2315 8.46958 11.1004 8.61396C11.2465 8.63737 11.6494 8.7798 11.6316 8.96516C11.2386 9.93292 9.59761 10.4363 8.79981 9.70659V9.70854Z" fill="black"/>
<path d="M14.1119 8.67054C13.5115 8.67054 13.2055 8.23544 13.0909 7.64425C12.925 6.78771 12.6367 5.97799 12.2951 5.17023C12.1194 4.75464 11.7975 3.80054 11.2663 3.69128C10.662 3.56641 10.1288 3.89224 9.43963 5.27364C8.87287 6.41309 8.48978 7.2072 8.48978 7.2072V7.215L8.10075 7.2111C8.10075 7.2111 8.0968 7.2111 8.09088 7.2111C8.09088 7.2111 8.06718 7.2111 8.03756 7.2111C8.02966 7.2111 8.02374 7.2111 8.01584 7.2111C8.00991 7.2111 8.00399 7.2111 7.99806 7.2111C7.99214 7.2111 7.98622 7.2111 7.98029 7.2111C7.97239 7.2111 7.96449 7.2111 7.95857 7.2111C7.92895 7.2111 7.90525 7.2111 7.90525 7.2111C7.90525 7.2111 7.89538 7.2111 7.89538 7.21305L7.50635 7.21696V7.20915C7.50635 7.20915 7.12325 6.41309 6.5565 5.27559C5.86929 3.89224 5.33414 3.56836 4.72987 3.69323C4.19866 3.80249 3.87678 4.75854 3.70103 5.17218C3.3594 5.97994 3.07108 6.78771 2.90521 7.6462C2.79067 8.23739 2.48656 8.67054 1.88426 8.67249C1.73023 8.67249 1.62755 8.83249 1.68087 8.97492C1.80922 9.31831 2.20417 9.53684 2.53395 9.66366C2.38585 9.70269 1.94351 9.61293 1.92376 9.83536C1.90796 10.0168 2.37005 10.2002 2.49446 10.2588C3.65758 10.8187 4.72789 11.8236 6.10429 11.646C6.70263 11.568 7.13905 11.1465 7.62879 10.8851C7.85983 10.7621 8.14025 10.7621 8.37129 10.8851C8.86103 11.1465 9.29744 11.568 9.89579 11.646C11.2722 11.8236 12.3425 10.8187 13.5056 10.2588C13.63 10.1983 14.0901 10.0168 14.0763 9.83536C14.0585 9.61488 13.6162 9.70269 13.4661 9.66366C13.7959 9.53684 14.1909 9.31831 14.3192 8.97492C14.3725 8.83249 14.2679 8.67444 14.1158 8.67249L14.1119 8.67054ZM4.36257 8.96516C4.34479 8.7798 4.74764 8.63737 4.89377 8.61396C5.76266 8.46958 6.91393 8.80907 7.19434 9.70854C6.39655 10.4363 4.75356 9.93487 4.36257 8.96711V8.96516ZM8.79981 9.70854C9.08022 8.80907 10.2315 8.46958 11.1004 8.61396C11.2465 8.63737 11.6494 8.7798 11.6316 8.96516C11.2386 9.93292 9.59761 10.4363 8.79981 9.70659V9.70854Z" fill="white"/>
</svg>

<!-- This Source Code Form is subject to the terms of the Mozilla Public
   - License, v. 2.0. If a copy of the MPL was not distributed with this
   - file, You can obtain one at http://mozilla.org/MPL/2.0/. -->
<svg xmlns="http://www.w3.org/2000/svg" width="16" height="16" fill="context-fill" fill-opacity="context-fill-opacity" viewBox="0 0 16 16">
    <circle cx="8" cy="8" r="8" />
    <path d="M14.112 8.67c-.6 0-.906-.435-1.021-1.026-.166-.856-.454-1.666-.796-2.474-.176-.415-.498-1.37-1.029-1.479-.604-.125-1.137.201-1.826 1.583-.567 1.14-.95 1.933-.95 1.933v.008l-.39-.004h-.195s-.01 0-.01.002l-.389.004v-.008s-.383-.796-.95-1.933C5.87 3.892 5.335 3.568 4.73 3.693c-.531.11-.853 1.066-1.029 1.48-.342.807-.63 1.615-.796 2.473-.114.591-.418 1.025-1.02 1.026-.155 0-.257.16-.204.303.128.343.523.562.853.689-.148.039-.59-.051-.61.171-.016.182.446.365.57.424 1.164.56 2.234 1.565 3.61 1.387.599-.078 1.035-.5 1.525-.76a.8.8 0 0 1 .742 0c.49.26.926.682 1.525.76 1.376.178 2.446-.827 3.61-1.387.124-.06.584-.242.57-.424-.018-.22-.46-.132-.61-.171.33-.127.725-.346.853-.69a.225.225 0 0 0-.203-.302zm-9.75.295c-.017-.185.386-.328.532-.351.869-.144 2.02.195 2.3 1.095-.797.727-2.44.226-2.831-.742zM8.8 9.71c.28-.9 1.431-1.24 2.3-1.095.146.023.55.166.532.351-.393.968-2.034 1.471-2.832.742z" />
    <path d="M14.112 8.67c-.6 0-.906-.435-1.021-1.026-.166-.856-.454-1.666-.796-2.474-.176-.415-.498-1.37-1.029-1.479-.604-.125-1.137.201-1.826 1.583-.567 1.14-.95 1.933-.95 1.933v.008l-.39-.004h-.195s-.01 0-.01.002l-.389.004v-.008s-.383-.796-.95-1.933C5.87 3.892 5.335 3.568 4.73 3.693c-.531.11-.853 1.066-1.029 1.48-.342.807-.63 1.615-.796 2.473-.114.591-.418 1.025-1.02 1.026-.155 0-.257.16-.204.303.128.343.523.562.853.689-.148.039-.59-.051-.61.171-.016.182.446.365.57.424 1.164.56 2.234 1.565 3.61 1.387.599-.078 1.035-.5 1.525-.76a.8.8 0 0 1 .742 0c.49.26.926.682 1.525.76 1.376.178 2.446-.827 3.61-1.387.124-.06.584-.242.57-.424-.018-.22-.46-.132-.61-.171.33-.127.725-.346.853-.69a.225.225 0 0 0-.203-.302zm-9.75.295c-.017-.185.386-.328.532-.351.869-.144 2.02.195 2.3 1.095-.797.727-2.44.226-2.831-.742zM8.8 9.71c.28-.9 1.431-1.24 2.3-1.095.146.023.55.166.532.351-.393.968-2.034 1.471-2.832.742z" />
</svg>
